X:1
T:Title
%%score 1 2
L:1/8
Q:1/4=95
M:4/4
K:G
V:1 treble nm="Grand Piano, Soprano"
V:2 bass nm="Choir Pad, Bass"
V:1
 D2 [B,G][B,G] [B,G][B,G] [A,F]2 | DD[CA][CA] [CA][CA] [B,G]2- | [B,G]2 [DB][DB] [DB][DB][Ec][DB] | %3
w: By~George~Frederick~Root * * * * *|||
 [CA][B,G] [A,F]2 [B,G]2 [CA]2 | DD[B,G][B,G] [B,G][B,G] [A,F]2 | DD[CA][CA] [CA][CA] [B,G]2 | %6
w: |||
 [CA][DB][Ec][Ec] [Ec][Ec] [DB]2 | [CA][CA] [B,G]2 [A,F]2 [B,G]2 | z2 [^DB]>[DB] [DB][DA] [EG]2 | %9
w: |||
 E[EG] [^DB]>[DB] [DB][DA] [EG]2- | [EG]2 [Fd]>[Fd] [Fd][Fc] [GB]2 | %11
w: ||
 G[GB] [Fd]>[Fd] [Fd][Fc] [GB]2- | [GB]2 [GB][GB] [GB][GB] [FA]2 | %13
w: ||
 [FA]2 [EG][EG] [EG][EG] [^DF]2- | [DF]2 [CE][CE] [CE][CE][B,=D][B,G] | %15
w: ||
 [DG][EA] [DB]2 [CA]2 [B,G]2- | [B,G]6 z2 |] %17
w: ||
V:2
 D,2 G,,A,, B,,C, D,2 | D,D,D,E, F,D, G,2- | G,2 G,G, G,G, G,2 | G,G, D,2 D,2 D,2 | %4
 D,D,G,,A,, B,,C, D,2 | D,D,D,E, F,D, G,2 | G,G,C,D, E,F, G,2 | C,C, D,2 D,2 G,,2 | %8
 z2 B,,>B,, B,,B,, E,2 | E,E, B,,>B,, B,,B,, E,2- | E,2 D,>D, D,D, G,2 | G,G, D,>D, D,D, G,2- | %12
 G,2 G,,A,, B,,C, D,2 | D,2 E,F, G,A, B,2 | B,,2 C,D, E,F,G,G, | B,,C, D,2 D,2 G,,2- | G,,6 z2 |] %17

